X:134
T:Mole Catcher, The
M:6/8
L:1/8
N:Measures having triplets in them should be played with an ‘A' note drone.
B:Thompson's Compleat Collection of 200 Favourite Country Dances, vol. 2 (London, 1765)
Z:Transcribed and edited by Flynn Titford-Mock, 2007
Z:abc's:AK/Fiddler's Companion
K:D
a | (3f/g/a/ a2 afa | (3f/g/a/ a2 afa | ga/g/f/e/ fg/f/e/d/ | ecA A2a | (3f/g/a/ a2 afa | (3f/g/a/ a2 afa |
ga/g/f/e/ fge | d3 D2 :: A | FAd (3f/g/a/ f2 | (3g/a/b g2 (3f/g/a/ f2 | FAd fg/f/e/d/ |
eAA A2G | FAd (3f/g/a/ f2 | (3g/a/b/ g2 (3f/g/a/ f2 | gb/a/g/f/ ea/g/f/e/ | dA/G/F/E/ D2 :|

